X: 2178
Q: "Strathspey."
M: C
L: 1/8
K: G
(B<e)d>A d<AB<d |\
{cd}e>dB>G A>Bd>B | G>AB>A (GE)G2 |[|\
g>dB>d G>AB>d | g>fe>f g>ab>a |
g>d(eg) G>A(Bd) | c>Ad>B A>G(Ed) |\
g>dB>d G>AB>d | g>fe>f g>ab>a |\
g>de>B G>AB>d | c>Ad>B (AG)E2 |]


